Newaita-dark/apps/24/org.kde.plasma.mediacenter.svg

<?xml version="1.0" encoding="UTF-8"?>
<svg xmlns="http://www.w3.org/2000/svg" xmlns:xlink="http://www.w3.org/1999/xlink" width="24pt" height="24pt" viewBox="0 0 24 24" version="1.1">
<defs>
<linearGradient id="linear0" gradientUnits="userSpaceOnUse" x1="254" y1="233.5" x2="254" y2="254.666672" gradientTransform="matrix(0.0468795,0,0,0.0468795,-0.0000028613,10.079089)">
<stop offset="0" style="stop-color:rgb(0%,0%,0%);stop-opacity:0.27451;"/>
<stop offset="1" style="stop-color:rgb(0%,0%,0%);stop-opacity:0;"/>
</linearGradient>
<radialGradient id="radial0" gradientUnits="userSpaceOnUse" cx="450.908936" cy="189.579361" fx="450.908936" fy="189.579361" r="21.166656" gradientTransform="matrix(0.000000130628,-0.0585994,-0.105479,-0.0000000761539,37.609563,47.696499)">
<stop offset="0" style="stop-color:rgb(0%,0%,0%);stop-opacity:0.313725;"/>
<stop offset="0.222222" style="stop-color:rgb(0%,0%,0%);stop-opacity:0.27451;"/>
<stop offset="1" style="stop-color:rgb(0%,0%,0%);stop-opacity:0;"/>
</radialGradient>
<radialGradient id="radial1" gradientUnits="userSpaceOnUse" cx="450.908936" cy="189.579361" fx="450.908936" fy="189.579361" r="21.166656" gradientTransform="matrix(-0.000000130628,0.0585994,0.105479,0.0000000761539,-13.794787,-5.645609)">
<stop offset="0" style="stop-color:rgb(0%,0%,0%);stop-opacity:0.313725;"/>
<stop offset="0.222222" style="stop-color:rgb(0%,0%,0%);stop-opacity:0.27451;"/>
<stop offset="1" style="stop-color:rgb(0%,0%,0%);stop-opacity:0;"/>
</radialGradient>
<radialGradient id="radial2" gradientUnits="userSpaceOnUse" cx="450.908936" cy="189.579361" fx="450.908936" fy="189.579361" r="21.166656" gradientTransform="matrix(-0.000000130628,-0.0585994,0.105479,-0.0000000761539,-13.794787,47.696499)">
<stop offset="0" style="stop-color:rgb(0%,0%,0%);stop-opacity:0.313725;"/>
<stop offset="0.222222" style="stop-color:rgb(0%,0%,0%);stop-opacity:0.27451;"/>
<stop offset="1" style="stop-color:rgb(0%,0%,0%);stop-opacity:0;"/>
</radialGradient>
<radialGradient id="radial3" gradientUnits="userSpaceOnUse" cx="450.908936" cy="189.579361" fx="450.908936" fy="189.579361" r="21.166656" gradientTransform="matrix(0.000000130628,0.0585994,-0.105479,0.0000000761539,37.609561,-5.64561)">
<stop offset="0" style="stop-color:rgb(0%,0%,0%);stop-opacity:0.313725;"/>
<stop offset="0.222222" style="stop-color:rgb(0%,0%,0%);stop-opacity:0.27451;"/>
<stop offset="1" style="stop-color:rgb(0%,0%,0%);stop-opacity:0;"/>
</radialGradient>
<linearGradient id="linear1" gradientUnits="userSpaceOnUse" x1="840" y1="1455.118164" x2="840" y2="1695.118164" gradientTransform="matrix(0.0124035,0,0,-0.0124035,0.00000031253,39.074032)">
<stop offset="0" style="stop-color:rgb(38.039216%,38.039216%,38.039216%);stop-opacity:1;"/>
<stop offset="1" style="stop-color:rgb(25.882353%,25.882353%,25.882353%);stop-opacity:1;"/>
</linearGradient>
<linearGradient id="linear2" gradientUnits="userSpaceOnUse" x1="306.916656" y1="-25.791676" x2="305.954559" y2="-141.414581" gradientTransform="matrix(0.0565122,0,0,0.163059,-4.39051,25.231011)">
<stop offset="0" style="stop-color:rgb(36.078431%,41.960784%,75.294118%);stop-opacity:1;"/>
<stop offset="1" style="stop-color:rgb(47.45098%,52.54902%,79.607843%);stop-opacity:1;"/>
</linearGradient>
<linearGradient id="linear3" gradientUnits="userSpaceOnUse" x1="444.5" y1="185.875" x2="444.5" y2="148.833328" gradientTransform="matrix(0.5,0,0,0.571428,169.333206,-297.38092)">
<stop offset="0" style="stop-color:rgb(30.196078%,71.372549%,67.45098%);stop-opacity:1;"/>
<stop offset="1" style="stop-color:rgb(0%,58.823529%,53.333333%);stop-opacity:1;"/>
</linearGradient>
<linearGradient id="linear4" gradientUnits="userSpaceOnUse" x1="255.281906" y1="101.500443" x2="255.281906" y2="-96.706314" gradientTransform="matrix(0.961118,0,0,0.961118,8.644083,-12.220521)">
<stop offset="0" style="stop-color:rgb(87.843137%,87.843137%,87.843137%);stop-opacity:1;"/>
<stop offset="1" style="stop-color:rgb(93.333333%,93.333333%,93.333333%);stop-opacity:1;"/>
</linearGradient>
<linearGradient id="linear5" gradientUnits="userSpaceOnUse" x1="1000" y1="1255.118164" x2="1000" y2="535.118103" gradientTransform="matrix(0.0124035,0,0,0.0124035,-0.000000125012,-1.418105)">
<stop offset="0" style="stop-color:rgb(87.843137%,87.843137%,87.843137%);stop-opacity:1;"/>
<stop offset="1" style="stop-color:rgb(93.333333%,93.333333%,93.333333%);stop-opacity:1;"/>
</linearGradient>
<linearGradient id="linear6" gradientUnits="userSpaceOnUse" x1="1000" y1="1255.118164" x2="1000" y2="535.118103" gradientTransform="matrix(0.0124035,0,0,0.0124035,-0.000000125012,-1.418105)">
<stop offset="0" style="stop-color:rgb(93.72549%,32.54902%,31.372549%);stop-opacity:1;"/>
<stop offset="1" style="stop-color:rgb(89.803922%,45.098039%,45.098039%);stop-opacity:1;"/>
</linearGradient>
<linearGradient id="linear7" gradientUnits="userSpaceOnUse" x1="254" y1="148.833328" x2="254" y2="127.666656" gradientTransform="matrix(0.0468795,0,0,0.0468795,0,10.079087)">
<stop offset="0" style="stop-color:rgb(87.843137%,87.843137%,87.843137%);stop-opacity:1;"/>
<stop offset="1" style="stop-color:rgb(93.333333%,93.333333%,93.333333%);stop-opacity:1;"/>
</linearGradient>
<linearGradient id="linear8" gradientUnits="userSpaceOnUse" x1="243.416672" y1="127.666656" x2="243.416672" y2="148.833328" gradientTransform="matrix(0.0468795,0,0,0.0468795,0,10.079087)">
<stop offset="0" style="stop-color:rgb(93.72549%,32.54902%,31.372549%);stop-opacity:1;"/>
<stop offset="1" style="stop-color:rgb(89.803922%,45.098039%,45.098039%);stop-opacity:1;"/>
</linearGradient>
</defs>
<g id="surface1">
<path style=" stroke:none;fill-rule:nonzero;fill:url(#linear0);" d="M 5.953125 21.027344 L 17.859375 21.027344 L 17.859375 22.019531 L 5.953125 22.019531 Z M 5.953125 21.027344 "/>
<path style=" stroke:none;fill-rule:nonzero;fill:url(#radial0);" d="M 17.859375 21.027344 L 19.84375 21.027344 L 19.84375 20.03125 L 17.859375 20.03125 Z M 17.859375 21.027344 "/>
<path style=" stroke:none;fill-rule:nonzero;fill:url(#radial1);" d="M 5.953125 21.027344 L 3.96875 21.027344 L 3.96875 22.019531 L 5.953125 22.019531 Z M 5.953125 21.027344 "/>
<path style=" stroke:none;fill-rule:nonzero;fill:url(#radial2);" d="M 5.953125 21.027344 L 3.96875 21.027344 L 3.96875 20.03125 L 5.953125 20.03125 Z M 5.953125 21.027344 "/>
<path style=" stroke:none;fill-rule:nonzero;fill:url(#radial3);" d="M 17.859375 21.027344 L 19.84375 21.027344 L 19.84375 22.019531 L 17.859375 22.019531 Z M 17.859375 21.027344 "/>
<path style=" stroke:none;fill-rule:nonzero;fill:url(#linear1);" d="M 4.960938 21.027344 C 4.410156 21.027344 3.96875 20.582031 3.96875 20.03125 L 3.96875 18.046875 L 19.84375 18.046875 L 19.84375 20.03125 C 19.84375 20.582031 19.402344 21.027344 18.851562 21.027344 Z M 4.960938 21.027344 "/>
<path style=" stroke:none;fill-rule:nonzero;fill:rgb(0%,0%,0%);fill-opacity:0.235294;" d="M 4.960938 20.964844 C 4.410156 20.964844 3.96875 20.519531 3.96875 19.972656 L 3.96875 19.847656 C 3.96875 20.398438 4.410156 20.839844 4.960938 20.839844 L 18.851562 20.839844 C 19.402344 20.839844 19.84375 20.398438 19.84375 19.847656 L 19.84375 19.972656 C 19.84375 20.519531 19.402344 20.964844 18.851562 20.964844 Z M 4.960938 20.964844 "/>
<path style="fill:none;stroke-width:3;stroke-linecap:round;stroke-linejoin:miter;stroke:rgb(12.941177%,12.941177%,12.941177%);stroke-opacity:1;stroke-miterlimit:4;" d="M 105.823228 233.5405 C 94.07435 233.5405 84.658582 224.041407 84.658582 212.292529 L 84.658582 169.963238 L 423.292911 169.963238 L 423.292911 212.292529 C 423.292911 224.041407 413.877143 233.5405 402.128265 233.5405 Z M 105.823228 233.5405 " transform="matrix(0.0468795,0,0,0.0468795,0,10.079087)"/>
<path style=" stroke:none;fill-rule:nonzero;fill:url(#linear2);" d="M 2.480469 2.171875 L 21.335938 2.171875 C 21.882812 2.171875 22.328125 2.617188 22.328125 3.164062 L 22.328125 17.550781 C 22.328125 18.101562 21.882812 18.542969 21.335938 18.542969 L 2.480469 18.542969 C 1.933594 18.542969 1.488281 18.101562 1.488281 17.550781 L 1.488281 3.164062 C 1.488281 2.617188 1.933594 2.171875 2.480469 2.171875 Z M 2.480469 2.171875 "/>
<path style="fill-rule:nonzero;fill:url(#linear3);stroke-width:3;stroke-linecap:round;stroke-linejoin:miter;stroke:rgb(12.941177%,12.941177%,12.941177%);stroke-opacity:1;stroke-miterlimit:4;" d="M 391.545943 -212.292529 C 397.462044 -212.292529 402.128265 -207.626308 402.128265 -201.710206 C 402.128265 -195.87743 397.462044 -191.127883 391.545943 -191.127883 C 385.713166 -191.127883 380.96362 -195.87743 380.96362 -201.710206 C 380.96362 -207.626308 385.713166 -212.292529 391.545943 -212.292529 Z M 391.545943 -212.292529 " transform="matrix(0.0468795,0,0,-0.0468795,0,10.079087)"/>
<path style=" stroke:none;fill-rule:nonzero;fill:rgb(100%,100%,100%);fill-opacity:0.392157;" d="M 2.480469 2.171875 C 1.929688 2.171875 1.488281 2.613281 1.488281 3.164062 L 1.488281 3.46875 C 1.488281 2.917969 1.929688 2.476562 2.480469 2.476562 L 21.335938 2.476562 C 21.882812 2.476562 22.328125 2.917969 22.328125 3.46875 L 22.328125 3.164062 C 22.328125 2.613281 21.882812 2.171875 21.335938 2.171875 Z M 2.480469 2.171875 "/>
<path style=" stroke:none;fill-rule:nonzero;fill:rgb(0%,0%,0%);fill-opacity:0.235294;" d="M 1.488281 17.21875 L 1.488281 17.550781 C 1.488281 18.101562 1.929688 18.542969 2.480469 18.542969 L 21.335938 18.542969 C 21.882812 18.542969 22.328125 18.101562 22.328125 17.550781 L 22.328125 17.21875 C 22.328125 17.769531 21.882812 18.210938 21.335938 18.210938 L 2.480469 18.210938 C 1.929688 18.210938 1.488281 17.769531 1.488281 17.21875 Z M 1.488281 17.21875 "/>
<path style=" stroke:none;fill-rule:nonzero;fill:rgb(0%,0%,0%);fill-opacity:1;" d="M 2.480469 2.101562 C 1.894531 2.101562 1.417969 2.578125 1.417969 3.164062 L 1.417969 17.550781 C 1.417969 18.140625 1.894531 18.613281 2.480469 18.613281 L 21.335938 18.613281 C 21.921875 18.613281 22.398438 18.140625 22.398438 17.550781 L 22.398438 3.164062 C 22.398438 2.578125 21.921875 2.101562 21.335938 2.101562 Z M 2.480469 2.242188 L 21.335938 2.242188 C 21.847656 2.242188 22.257812 2.652344 22.257812 3.164062 L 22.257812 17.550781 C 22.257812 18.0625 21.847656 18.472656 21.335938 18.472656 L 2.480469 18.472656 C 1.96875 18.472656 1.558594 18.0625 1.558594 17.550781 L 1.558594 3.164062 C 1.558594 2.652344 1.96875 2.242188 2.480469 2.242188 Z M 2.480469 2.242188 "/>
<path style="fill-rule:nonzero;fill:url(#linear4);stroke-width:3;stroke-linecap:round;stroke-linejoin:round;stroke:rgb(11.764706%,11.764706%,11.764706%);stroke-opacity:1;stroke-miterlimit:4;" d="M 232.811101 -52.26554 C 227.06165 -52.515516 222.228778 -47.849295 222.228778 -42.099844 L 222.228778 18.894331 C 222.228778 26.810242 230.894617 31.726439 237.643973 27.643495 L 288.472452 -2.853592 C 295.055157 -6.769885 295.055157 -16.352303 288.472452 -20.268596 L 237.643973 -50.849009 C 236.227441 -51.682263 234.560934 -52.182215 232.811101 -52.26554 Z M 232.811101 -52.26554 " transform="matrix(0.0468795,0,0,0.0468795,0,10.079087)"/>
<path style=" stroke:none;fill-rule:nonzero;fill:url(#linear5);" d="M 11.90625 5.21875 C 9.433594 5.21875 7.441406 7.210938 7.441406 9.683594 C 7.441406 12.160156 9.433594 14.148438 11.90625 14.148438 C 14.382812 14.148438 16.371094 12.160156 16.371094 9.683594 C 16.371094 7.210938 14.382812 5.21875 11.90625 5.21875 Z M 11.90625 6.210938 C 13.832031 6.210938 15.378906 7.761719 15.378906 9.683594 C 15.378906 11.609375 13.832031 13.15625 11.90625 13.15625 C 9.984375 13.15625 8.433594 11.609375 8.433594 9.683594 C 8.433594 7.761719 9.984375 6.210938 11.90625 6.210938 Z M 11.90625 6.210938 "/>
<path style=" stroke:none;fill-rule:nonzero;fill:url(#linear6);" d="M 11.90625 5.21875 L 11.90625 6.210938 C 13.808594 6.210938 15.34375 7.722656 15.378906 9.613281 L 16.371094 9.613281 C 16.335938 7.171875 14.359375 5.21875 11.90625 5.21875 Z M 11.90625 5.21875 "/>
<path style=" stroke:none;fill-rule:nonzero;fill:rgb(12.941177%,12.941177%,12.941177%);fill-opacity:1;" d="M 11.90625 5.148438 C 9.394531 5.148438 7.371094 7.171875 7.371094 9.683594 C 7.371094 12.195312 9.394531 14.21875 11.90625 14.21875 C 14.417969 14.21875 16.441406 12.195312 16.441406 9.683594 C 16.441406 7.171875 14.417969 5.148438 11.90625 5.148438 Z M 11.90625 5.289062 C 14.34375 5.289062 16.300781 7.25 16.300781 9.683594 C 16.300781 12.121094 14.34375 14.078125 11.90625 14.078125 C 9.472656 14.078125 7.511719 12.121094 7.511719 9.683594 C 7.511719 7.25 9.472656 5.289062 11.90625 5.289062 Z M 11.90625 6.140625 C 9.945312 6.140625 8.363281 7.722656 8.363281 9.683594 C 8.363281 11.644531 9.945312 13.226562 11.90625 13.226562 C 13.871094 13.226562 15.449219 11.644531 15.449219 9.683594 C 15.449219 7.722656 13.871094 6.140625 11.90625 6.140625 Z M 11.90625 6.28125 C 13.792969 6.28125 15.308594 7.796875 15.308594 9.683594 C 15.308594 11.570312 13.792969 13.085938 11.90625 13.085938 C 10.019531 13.085938 8.503906 11.570312 8.503906 9.683594 C 8.503906 7.796875 10.019531 6.28125 11.90625 6.28125 Z M 11.90625 6.28125 "/>
<path style=" stroke:none;fill-rule:nonzero;fill:url(#linear7);" d="M 3.96875 16.0625 L 19.84375 16.0625 C 20.121094 16.0625 20.339844 16.285156 20.339844 16.558594 C 20.339844 16.835938 20.121094 17.054688 19.84375 17.054688 L 3.96875 17.054688 C 3.695312 17.054688 3.472656 16.835938 3.472656 16.558594 C 3.472656 16.285156 3.695312 16.0625 3.96875 16.0625 Z M 3.96875 16.0625 "/>
<path style=" stroke:none;fill-rule:nonzero;fill:url(#linear8);" d="M 3.96875 16.0625 C 3.695312 16.0625 3.472656 16.285156 3.472656 16.558594 C 3.472656 16.835938 3.695312 17.054688 3.96875 17.054688 L 9.425781 17.054688 L 9.425781 16.0625 Z M 3.96875 16.0625 "/>
<path style="fill:none;stroke-width:3;stroke-linecap:round;stroke-linejoin:round;stroke:rgb(12.941177%,12.941177%,12.941177%);stroke-opacity:1;stroke-miterlimit:4;" d="M 84.658582 127.633947 L 423.292911 127.633947 C 429.209013 127.633947 433.875234 132.383493 433.875234 138.21627 C 433.875234 144.132371 429.209013 148.798592 423.292911 148.798592 L 84.658582 148.798592 C 78.825806 148.798592 74.076259 144.132371 74.076259 138.21627 C 74.076259 132.383493 78.825806 127.633947 84.658582 127.633947 Z M 84.658582 127.633947 " transform="matrix(0.0468795,0,0,0.0468795,0,10.079087)"/>
</g>
</svg>

<svg xmlns="http://www.w3.org/2000/svg" width="32" height="32" viewBox="0 0 24 24"><defs><linearGradient id="a" gradientUnits="userSpaceOnUse" x1="254" y1="233.5" x2="254" y2="254.667" gradientTransform="matrix(.04688 0 0 .04688 0 10.08)"><stop offset="0" stop-opacity=".275"/><stop offset="1" stop-opacity="0"/></linearGradient><radialGradient id="b" gradientUnits="userSpaceOnUse" cx="450.909" cy="189.579" fx="450.909" fy="189.579" r="21.167" gradientTransform="matrix(0 -.0586 -.10548 0 37.61 47.696)"><stop offset="0" stop-opacity=".314"/><stop offset=".222" stop-opacity=".275"/><stop offset="1" stop-opacity="0"/></radialGradient><radialGradient id="c" gradientUnits="userSpaceOnUse" cx="450.909" cy="189.579" fx="450.909" fy="189.579" r="21.167" gradientTransform="matrix(0 .0586 .10548 0 -13.795 -5.646)"><stop offset="0" stop-opacity=".314"/><stop offset=".222" stop-opacity=".275"/><stop offset="1" stop-opacity="0"/></radialGradient><radialGradient id="d" gradientUnits="userSpaceOnUse" cx="450.909" cy="189.579" fx="450.909" fy="189.579" r="21.167" gradientTransform="matrix(0 -.0586 .10548 0 -13.795 47.696)"><stop offset="0" stop-opacity=".314"/><stop offset=".222" stop-opacity=".275"/><stop offset="1" stop-opacity="0"/></radialGradient><radialGradient id="e" gradientUnits="userSpaceOnUse" cx="450.909" cy="189.579" fx="450.909" fy="189.579" r="21.167" gradientTransform="matrix(0 .0586 -.10548 0 37.61 -5.646)"><stop offset="0" stop-opacity=".314"/><stop offset=".222" stop-opacity=".275"/><stop offset="1" stop-opacity="0"/></radialGradient><linearGradient id="f" gradientUnits="userSpaceOnUse" x1="840" y1="1455.118" x2="840" y2="1695.118" gradientTransform="matrix(.0124 0 0 -.0124 0 39.074)"><stop offset="0" stop-color="#616161"/><stop offset="1" stop-color="#424242"/></linearGradient><linearGradient id="g" gradientUnits="userSpaceOnUse" x1="306.917" y1="-25.792" x2="305.955" y2="-141.415" gradientTransform="matrix(.05651 0 0 .16306 -4.39 25.231)"><stop offset="0" stop-color="#5c6bc0"/><stop offset="1" stop-color="#7986cb"/></linearGradient><linearGradient id="h" gradientUnits="userSpaceOnUse" x1="444.5" y1="185.875" x2="444.5" y2="148.833" gradientTransform="matrix(.5 0 0 .57143 169.333 -297.38)"><stop offset="0" stop-color="#4db6ac"/><stop offset="1" stop-color="#009688"/></linearGradient><linearGradient id="i" gradientUnits="userSpaceOnUse" x1="255.282" y1="101.5" x2="255.282" y2="-96.706" gradientTransform="matrix(.96112 0 0 .96112 8.644 -12.22)"><stop offset="0" stop-color="#e0e0e0"/><stop offset="1" stop-color="#eee"/></linearGradient><linearGradient id="j" gradientUnits="userSpaceOnUse" x1="1000" y1="1255.118" x2="1000" y2="535.118" gradientTransform="matrix(.0124 0 0 .0124 0 -1.418)"><stop offset="0" stop-color="#e0e0e0"/><stop offset="1" stop-color="#eee"/></linearGradient><linearGradient id="k" gradientUnits="userSpaceOnUse" x1="1000" y1="1255.118" x2="1000" y2="535.118" gradientTransform="matrix(.0124 0 0 .0124 0 -1.418)"><stop offset="0" stop-color="#ef5350"/><stop offset="1" stop-color="#e57373"/></linearGradient><linearGradient id="l" gradientUnits="userSpaceOnUse" x1="254" y1="148.833" x2="254" y2="127.667" gradientTransform="matrix(.04688 0 0 .04688 0 10.08)"><stop offset="0" stop-color="#e0e0e0"/><stop offset="1" stop-color="#eee"/></linearGradient><linearGradient id="m" gradientUnits="userSpaceOnUse" x1="243.417" y1="127.667" x2="243.417" y2="148.833" gradientTransform="matrix(.04688 0 0 .04688 0 10.08)"><stop offset="0" stop-color="#ef5350"/><stop offset="1" stop-color="#e57373"/></linearGradient></defs><path d="M5.953 21.027H17.86v.993H5.953zm0 0" fill="url(#a)"/><path d="M17.86 21.027h1.984v-.996h-1.985zm0 0" fill="url(#b)"/><path d="M5.953 21.027H3.97v.993h1.984zm0 0" fill="url(#c)"/><path d="M5.953 21.027H3.97v-.996h1.984zm0 0" fill="url(#d)"/><path d="M17.86 21.027h1.984v.993h-1.985zm0 0" fill="url(#e)"/><path d="M4.96 21.027a.992.992 0 0 1-.991-.996v-1.984h15.875v1.984c0 .551-.442.996-.992.996zm0 0" fill="url(#f)"/><path d="M4.96 20.965a.991.991 0 0 1-.991-.992v-.125c0 .55.441.992.992.992h13.89c.551 0 .993-.442.993-.992v.125a.991.991 0 0 1-.992.992zm0 0" fill-opacity=".235"/><path d="M4.96 21.027a.992.992 0 0 1-.991-.996v-1.984h15.875v1.984c0 .551-.442.996-.992.996zm0 0" fill="none" stroke-width=".14064" stroke-linecap="round" stroke="#212121"/><path d="M2.48 2.172h18.856c.547 0 .992.445.992.992v14.387c0 .55-.445.992-.992.992H2.48a.991.991 0 0 1-.992-.992V3.164c0-.547.446-.992.992-.992zm0 0" fill="url(#g)"/><path d="M391.546-212.293c5.916 0 10.582 4.667 10.582 10.583a10.544 10.544 0 0 1-10.582 10.582c-5.833 0-10.582-4.75-10.582-10.582 0-5.916 4.75-10.583 10.582-10.583zm0 0" transform="matrix(.04688 0 0 -.04688 0 10.08)" fill="url(#h)" stroke-width="3" stroke-linecap="round" stroke="#212121"/><path d="M2.48 2.172a.989.989 0 0 0-.992.992v.305c0-.551.442-.992.992-.992h18.856c.547 0 .992.441.992.992v-.305a.991.991 0 0 0-.992-.992zm0 0" fill="#fff" fill-opacity=".392"/><path d="M1.488 17.219v.332c0 .55.442.992.992.992h18.856a.991.991 0 0 0 .992-.992v-.332c0 .55-.445.992-.992.992H2.48a.989.989 0 0 1-.992-.992zm0 0" fill-opacity=".235"/><path d="M2.48 2.102c-.585 0-1.062.476-1.062 1.062v14.387c0 .59.477 1.062 1.062 1.062h18.856c.586 0 1.062-.472 1.062-1.062V3.164c0-.586-.476-1.062-1.062-1.062zm0 .14h18.856c.512 0 .922.41.922.922v14.387c0 .512-.41.922-.922.922H2.48a.919.919 0 0 1-.921-.922V3.164c0-.512.41-.922.921-.922zm0 0"/><path d="M232.811-52.266c-5.75-.25-10.582 4.417-10.582 10.166v60.994c0 7.916 8.666 12.832 15.415 8.75l50.828-30.498c6.583-3.916 6.583-13.498 0-17.415l-50.828-30.58a10.544 10.544 0 0 0-4.833-1.417zm0 0" transform="matrix(.04688 0 0 .04688 0 10.08)" fill="url(#i)" stroke-width="3" stroke-linecap="round" stroke-linejoin="round" stroke="#1e1e1e"/><path d="M11.906 5.219a4.456 4.456 0 0 0-4.465 4.465 4.454 4.454 0 0 0 4.465 4.464 4.451 4.451 0 0 0 4.465-4.464 4.454 4.454 0 0 0-4.465-4.465zm0 .992a3.465 3.465 0 0 1 3.473 3.473 3.463 3.463 0 0 1-3.473 3.472 3.465 3.465 0 0 1-3.472-3.472 3.468 3.468 0 0 1 3.472-3.473zm0 0" fill="url(#j)"/><path d="M11.906 5.219v.992a3.463 3.463 0 0 1 3.473 3.402h.992a4.452 4.452 0 0 0-4.465-4.394zm0 0" fill="url(#k)"/><path d="M11.906 5.148a4.526 4.526 0 0 0-4.535 4.536 4.526 4.526 0 0 0 4.535 4.535 4.526 4.526 0 0 0 4.535-4.535 4.526 4.526 0 0 0-4.535-4.536zm0 .141a4.384 4.384 0 0 1 4.395 4.395 4.381 4.381 0 0 1-4.395 4.394 4.384 4.384 0 0 1-4.394-4.394 4.386 4.386 0 0 1 4.394-4.395zm0 .852a3.538 3.538 0 0 0-3.543 3.543 3.538 3.538 0 0 0 3.543 3.543 3.535 3.535 0 0 0 3.543-3.543 3.535 3.535 0 0 0-3.543-3.543zm0 .14a3.393 3.393 0 0 1 3.403 3.403 3.393 3.393 0 0 1-3.403 3.402 3.393 3.393 0 0 1-3.402-3.402 3.393 3.393 0 0 1 3.402-3.403zm0 0" fill="#212121"/><path d="M3.969 16.063h15.875c.277 0 .496.222.496.496a.492.492 0 0 1-.496.496H3.969a.497.497 0 0 1 0-.992zm0 0" fill="url(#l)"/><path d="M3.969 16.063a.497.497 0 0 0 0 .992h5.457v-.992zm0 0" fill="url(#m)"/><path d="M3.969 16.063h15.875c.277 0 .496.222.496.496a.492.492 0 0 1-.496.496H3.969a.497.497 0 0 1 0-.992zm0 0" fill="none" stroke-width=".14064" stroke-linecap="round" stroke-linejoin="round" stroke="#212121"/></svg>
